Adwaita++-Light/panel/16/ubuntuone-client-error.svg

<svg height="16" width="16" xmlns="http://www.w3.org/2000/svg">
  <path d="m6 3a4 4 0 0 0 -4 4 4 4 0 0 0 .0058594.171875 3 3 0 0 0 -2.0058594 2.828125 3 3 0 0 0 3 3h10a3 3 0 0 0 3-3 3 3 0 0 0 -2.009766-2.828125 3 3 0 0 0 .009766-.171875 3 3 0 0 0 -3-3 3 3 0 0 0 -1.8007812.6054688 4 4 0 0 0 -3.1992188-1.6054688zm.0019531 3h.5.0195313c.1272916.0053336.2453729.0759797.3339844.1679688l1.1445312 1.125 1.1679688-1.125c.1324845-.1146533.2115302-.1633027.3320312-.1679688h.5v.5c0 .1433166-.0171457.2750117-.125.375l-1.1464844 1.1464844 1.125 1.125c.0938711.0946557.1464844.2188648.1464844.3535156v.5h-.5c-.1324845 0-.2596448-.0524953-.3535156-.1464844l-1.1464844-1.125-1.1445312 1.125c-.0939376.0946558-.2215638.1464844-.3535157.1464844h-.5v-.5c0-.1326515.0505936-.2614797.1445313-.3554688l1.1464844-1.1230468-1.1464844-1.1464844c-.1045896-.0946557-.1551833-.2350163-.1445313-.375z" fill="#444"/>
</svg>

<svg xmlns="http://www.w3.org/2000/svg" width="16" height="16" version="1.1">
 <defs>
  <style id="current-color-scheme" type="text/css">
   .ColorScheme-Text { color:#444444; } .ColorScheme-Highlight { color:#4285f4; }
  </style>
 </defs>
 <path style="fill:currentColor" class="ColorScheme-Text" d="M 6 3 A 4 4 0 0 0 2 7 A 4 4 0 0 0 2.0058594 7.171875 A 3 3 0 0 0 0 10 A 3 3 0 0 0 3 13 L 13 13 A 3 3 0 0 0 16 10 A 3 3 0 0 0 13.990234 7.171875 A 3 3 0 0 0 14 7 A 3 3 0 0 0 11 4 A 3 3 0 0 0 9.1992188 4.6054688 A 4 4 0 0 0 6 3 z M 6.0019531 6 L 6.5019531 6 L 6.5214844 6 C 6.648776 6.0053336 6.7668573 6.0759797 6.8554688 6.1679688 L 8 7.2929688 L 9.1679688 6.1679688 C 9.3004533 6.0533155 9.379499 6.0046661 9.5 6 L 10 6 L 10 6.5 C 10 6.6433166 9.9828543 6.7750117 9.875 6.875 L 8.7285156 8.0214844 L 9.8535156 9.1464844 C 9.9473867 9.2411401 10 9.3653492 10 9.5 L 10 10 L 9.5 10 C 9.3675155 10 9.2403552 9.9475047 9.1464844 9.8535156 L 8 8.7285156 L 6.8554688 9.8535156 C 6.7615312 9.9481714 6.633905 10 6.5019531 10 L 6.0019531 10 L 6.0019531 9.5 C 6.0019531 9.3673485 6.0525467 9.2385203 6.1464844 9.1445312 L 7.2929688 8.0214844 L 6.1464844 6.875 C 6.0418948 6.7803443 5.9913011 6.6399837 6.0019531 6.5 L 6.0019531 6 z"/>
</svg>
